!!!!SEGMENT: pl-wumfc--n68470--002_dobrzynski-ignacy-feliks--deux-nocturnes-notturno-op-24-no-ii.krn
!!!cenid: 18xx:4171
!!!COM: Dobrzyński, Ignacy Feliks
!!!COM-rismID: pe30020642
!!!CDT: 1807/02/15-1867/10/09
!!!CNT: Polish
!!!GTL: Deux Nocturnes
!!!OTL: Notturno op. 24 No. II
!!!PDT:
!!!AGN:
!!!SMS-siglum: PL-Wumfc
!!!SMS-shelfmark: N68470
!!!SMS-variant:
!!!SMS-altvar:
!!!SMS-shelfwork: 002 G
!!!NIFC-rismSourceID: 1001177656
!!!NIFC-rismChildID: 1001177656
!!!NIFC-islandoraID: pl-wumfc:8416
!!!URL-pdf-islandora: https://repozytorium.nifc.pl/islandora/object/pl-wumfc%3A8416/datastream/PDF/view
!!!URL-scan: https://polish.musicsources.pl/pl/lokalizacje/galeria/druki-muzyczne/12635-deux-nocturnes/1 @EN{Scan on Polish Music Sources Website} @PL{Skany w portalu Dziedzictwo Muzyki Polskiej w otwartym dostępie}
!!!ONB-nifc: UWAGA: w zbiorze 1. Notturno No. I, 2. Notturno No. II
!!!AIN: 2 piano
!!!key: D-
**kern	**kern	**dynam
*part2	*part1	*part1
*staff2	*staff1	*
*I"PIANO	*I"PIANO	*
*I'pf	*I'pf	*
*>[A,A1,A,A2,B]	*>[A,A1,A,A2,B]	*>[A,A1,A,A2,B]
*>A	*>A	*>A
*ICklav	*ICklav	*
*Ipiano	*Ipiano	*
*clefF4	*clefG2	*
*D-:	*D-:	*
*k[b-e-a-d-g-]	*k[b-e-a-d-g-]	*
*M6/4	*M6/4	*
=1	=1	=1
!!LO:TX:t=P:problem: liczne adnotacje zapisane ołówkiem w źródle	!	!
*ped	*	*
.	(16qqf/LL	p
!	!LO:TX:b:B:t=e dolcissimo.	!
!	!LO:TX:a:B:t=Andantino.	!
.	16qqdd-/JJ)	.
4DD-/ 4D-	([>2.aa-^<\	.
!	!	!LO:HP:b=2
(4F\ 4d-	.	<
4A-\ 4e-	.	.
2d-\) 2f	4aa-\]	.
.	4dd-\	.
4r	4ee-\)	[
*Xped	*	*
=2	=2	=2
.	(16qqf/LL	.
.	16qqa-/JJ)	.
*ped	*	*
4DD-/ 4D-	([2.ff^<\	.
!	!	!LO:HP:b=2
(4F\ 4d-	.	<
4A-\ 4e-	.	.
2d-\) 2f	4ff\]	.
.	4gg-\	.
4r	4ff\)	[
*Xped	*	*
=3	=3	=3
.	16qqg-/LL	.
.	16qqcc/JJ	.
*^	*	*
*ped	*	*	*
4AAA-/ 4AA-	4ryy	([2.ee-^<\	.
!	!	!	!LO:HP:b=2
(4e-/	2.A-\ 2.c	.	<
4f/	.	.	.
4g-/)	.	4ee-\]	.
4rAA	4rB	4ff\	[
4rAA	4rB	4ee-\)	.
*v	*v	*	*
*Xped	*	*
=4	=4	=4
.	16qqf/LL	.
.	16qqa-/JJ	.
*ped	*	*
4DD-/ 4D-	([2.dd-^<\	.
!	!	!LO:HP:b=2
(4F\ 4d-	.	<
4A-\ 4e-	.	.
2d-\) 2f	4dd-\]	.
.	8qcc/	.
.	4b-\	.
4r	4a-\)	[
*Xped	*	*
=5	=5	=5
.	(16qqa-/LL	.
.	16qqdd-/	.
.	16qqff/JJ)	.
*ped	*	*
4DD-/ 4D-	([2.aa-^<\	.
!	!	!LO:HP:b=2
(4F\ 4d-	.	<
4A-\ 4e-	.	.
2d-\) 2f	4aa-\]	.
.	4dd-\	.
4r	4ee-\)	[
*Xped	*	*
=6	=6	=6
*	*	*^
.	16qqf/LL	<	.
.	16qqb-/	.	.
.	16qqdd-/JJ	.	.
*ped	*	*	*
4BBB-/ 4BB-	([2.ff^<\	.	.
!	!	!	!LO:HP:b=2
(4B-\ 4d-	.	.	<
4c\ 4e-	.	.	.
2d-\) 2f	4ff\]	.	.
.	4ee-\	.	.
4r	4dd-\)	.	[[
*Xped	*	*	*
*	*	*v	*v
!!LO:LB:g=original	!	!
=7	=7	=7
*	*^	*
.	.	[>16qqd-/LL	.
.	.	[>16qqgn/JJ	.
*^	*	*	*
*ped	*	*	*	*
4r	[2.EE-\	([2.dd-/	2.d-\_ 2.g_	f
(<4Gn/	.	.	.	.
4A-/	.	.	.	.
!	!	!	!	!LO:HP:t=dim.
4B-/)	4EE-\]	4dd-/]	2.d-\] 2.g]	>
4rFF	4rB	4cc/	.	.
4rFF	4rB	4b-/)	.	.
*Xped	*	*	*	*
=8	=8	=8	=8	=8
.	8qAAA-/	.	.	.
*ped	*	*	*	*
4r	2.AA-\	([2.b--^/	[2.c\ [>2.e-	p <
4E-/	.	.	.	.
4F/	.	.	.	.
2G-X/	2AA-\	4b--/]	4c\] 4e-]	[ >
.	.	4a-/	4r	.
4rFF	4rG	4a-/)	4r	]
*Xped	*	*	*	*
*v	*v	*	*	*
*	*v	*v	*
=9	=9	=9
.	(16qqa-/LL	.
.	16qqdd-/	.
.	16qqff/JJ)	.
*ped	*	*
4DD-/ 4D-	[2.aa-^<\	.
(4F\ 4d-	.	.
4A-\ 4e-	.	.
2d-\) 2f	4aa-\]	.
.	4dd-\	.
4r	4ee-\	.
*Xped	*	*
=10	=10	=10
.	(16qqf/LL	.
.	16qqa-/JJ)	.
*ped	*	*
4DD-/ 4D-	[2.ff^<\	.
(4F\ 4d-	.	.
4A-\ 4e-	.	.
2d-\) 2f	4ff\]	.
.	4gg-\	.
4r	4ff\	.
*Xped	*	*
=11	=11	=11
*	*^	*
.	.	[16qqg-/LL	.
*^	*	*	*
.	16qAAA-/	.	[16qqcc/JJ	.
*ped	*	*	*	*
4r	[2.AA-\	([2.ee-/	1.g-^<] 1.cc]	.
(4A-/	.	.	.	.
4B-/	.	.	.	.
2c/)	2AA-\]	4ee-/]	.	.
.	.	4ff/	.	.
4rFF	4rB	4ee-/)	.	.
*Xped	*	*	*	*
=12	=12	=12	=12	=12
*ped	*	*	*	*
2rB	4DD-/	2dd-/	2f\	<
.	4D-\	.	.	.
4r	4A-\	4r	4ryy	.
2.f/	2d-\	4r	4ryy	[
.	.	8qdd-/	.	>
.	.	(4cc-X\	4ryy	.
.	4dn\	4b-\)	4ryy	]]
*Xped	*	*	*	*
*v	*v	*	*	*
*	*v	*v	*
=13	=13	=13
.	(16qqb-/LL	.
.	16qqee-/	.
!	!LO:TX:b:B:t=espressivo.	!
.	16qqgg-/JJ)	.
*ped	*	*
4EE-/ 4E-	([2.bb-\	.
*clefG2	*	*
(>4e-/ 4g-	.	.
4f/ 4a-	.	.
2g-/) 2b-	4bb-\]	.
.	4ee-\	.
4r	4ff\)	.
*Xped	*	*
*clefF4	*	*
!!LO:LB:g=original	!	!
=14	=14	=14
*	*^	*
.	.	[16qqg-/LL	.
*^	*	*	*
.	8qEE-/	.	[16qqee-/JJ	.
*ped	*	*	*	*
4r	[2.E-\	([2.gg-/	2.g-\_ 2.ee-_>	.
(4c-X^</	.	.	.	.
4B-/	.	.	.	.
2B-/)	2E-\]	4gg-/]	2.g-\] 2.ee-]	.
.	.	4aa-/	.	.
4rAA	4rB	4gg-/)	.	.
*Xped	*	*	*	*
=15	=15	=15	=15	=15
.	16qBBB-/	.	.	.
*ped	*	*	*	*
4r	[2.BB-\	([2.ff^</	1.a- 1.ddn	.
(4B-/	.	.	.	.
4c/	.	.	.	.
2dn/)	2BB-\]	4ff/]	.	.
.	.	4gg-/	.	.
4rFF	4rB	4ff/)	.	.
*Xped	*	*	*	*
=16	=16	=16	=16	=16
*ped	*	*	*	*
4r	2E-\	([2.ee-/	1.g-	<
(4B-/	.	.	.	.
4B--/	4D-\	.	.	.
2A-/)	2C\	4ee-/]	.	[ >
.	.	4ff/	.	.
4rFF	4rB	4gg-/)	.	]]
*Xped	*	*	*	*
*v	*v	*	*	*
*	*v	*v	*
=17	=17	=17
.	(16qqf/LL	.
.	16qqdd-/JJ)	.
*ped	*	*
4DD-/ 4D-	([2.aa-^<\	.
(4F\ 4d-	.	.
4A-\ 4e-	.	.
2d-\) 2f	4aa-\]	.
.	4dd-\	.
4r	4ee-\)	.
*Xped	*	*
=18	=18	=18
.	16qqf/LL	.
.	16qqb-/	.
.	16qqdd-/JJ	.
*ped	*	*
4BBB-/ 4BB-	([2.ff^<\	.
(4B-\ 4d-	.	.
4c\ 4e-	.	.
2d-\) 2f	4ff\]	.
.	4ee-\	.
4r	4dd-\)	.
*Xped	*	*
=19	=19	=19
*	*^	*
.	.	[16qqd-/LL	.
.	.	[16qqgn/JJ	.
*^	*	*	*
*ped	*	*	*	*
4r	[2.EE-\	[>(2.dd-/	1.d-] 1.g]	f
4E-/	.	.	.	.
4F/	.	.	.	.
!	!	!	!	!LO:HP:t=dim.
2Gn/	2EE-\]	4dd-/]	.	>
.	.	4cc/	.	.
4rEE	4rG	4b-/)	.	.
*Xped	*	*	*	*
=20	=20	=20	=20	=20
.	16qAAA-/	.	.	.
*ped	*	*	*	*
4r	[2.AA-\	([2.b--^/	[2.c\ [>2.e-	p
4E-/	.	.	.	.
4F/	.	.	.	.
2G-/	2AA-\]	4b--/]	2c\] 2e-]	.
.	.	4a-/	.	.
4rFF	4rG	4a-/)	4r	.
*Xped	*	*	*	*
*v	*v	*	*	*
*	*v	*v	*
!!LO:LB:g=original	!	!
=21	=21	=21
.	(16qqa-/LL	p
.	16qqdd-/	.
.	16qqff/JJ)	.
*ped	*	*
4DD-/ 4D-	([2.aa-^\	.
(4F\ 4d-	.	.
4A-\ 4e-	.	.
2d-\) 2f	4aa-\]	.
.	4dd-\	.
4r	4ee-\)	.
*Xped	*	*
=22	=22	=22
.	(16qqf/LL	.
.	16qqa-/JJ)	.
*ped	*	*
4DD-/ 4D-	([2.ff^\	.
(4F\ 4d-	.	.
4A-\ 4e-	.	.
2d-\) 2f	4ff\]	.
.	4gg-\	.
4r	4ff\)	.
*Xped	*	*
=23	=23	=23
*	*^	*
.	.	[16qqg-/LL	.
*^	*	*	*
.	16qAAA-/	.	[16qqcc/JJ	.
*ped	*	*	*	*
4r	[2.AA-\	([2.ee-/	1.g-^] 1.cc]	.
(4A-/	.	.	.	.
4B-/	.	.	.	.
2c/)	2AA-\]	4ee-/]	.	.
.	.	4ff/	.	.
4rFF	4rG	4ee-/)	.	.
*Xped	*	*	*	*
=24	=24	=24	=24	=24
.	16qDD-/	.	.	.
*ped	*	*	*	*
4r	[2.D-\	([2.dd-/	1.f 1.a-	.
(4A-/	.	.	.	.
4B-/	.	.	.	.
2c-X/)	2D-\]	4dd-/]	.	<
.	.	16qff/	.	.
.	.	4ee-/	.	.
4rFF	4rG	4dd-/)	.	.
*Xped	*	*	*	*
*	*	*v	*v	*
=25	=25	=25	=25
.	.	16qdd-/	.
*ped	*	*	*
4r	[2.GG-\	([2.bb-^<\ [2.ddd-	f
4B-/	.	.	.
4c/	.	.	.
2d-/	2GG-\]	4bb-\] 4ddd-]	.
.	.	4aa-\ 4ccc	.
4rFF	4rB	4gg-\) 4bb-	.
*Xped	*	*	*
=26	=26	=26	=26
!	!	!	!LO:HP:t=dimin.
.	16qAA-/	16qa-/	>
*ped	*	*	*
4r	[2.A-\	(2.ff\ [2.aa-	.
(4d-/	.	.	.
4e-/	.	.	.
2f/)	2A-\]	4ff\ 4aa-]	.
.	.	4b-\ 4ee- 4gg-	.
4rC	4rB	4a-\) 4ff	.
*Xped	*	*	*
=27	=27	=27	=27
*	*	*^	*
*ped	*	*	*	*
4rB	1.AA-	([2.ee-/	(1.g-^ 1.cc	p
(4B--^</	.	.	.	.
4A-/	.	.	.	.
[2.A-/)	.	4ee-/]	.	.
.	.	4ff/	.	.
.	.	4ee-/)	.	.
*Xped	*	*	*	*
!!LO:LB:g=original	!	!	!	!
=28	=28	=28	=28	=28
*ped	*	*	*	*
4A-/]	4C\	2dd-/	2f\)	.
4rB	4AA-'>\	.	.	.
4rB	4FF'>\	4rd	4rcc	.
2rB	4DD-'>\	2re	2rdd	.
.	4r	.	.	.
4rCC	4rG	4f\ 4ff	4ryy	.
*Xped	*	*	*	*
*v	*v	*	*	*
*	*v	*v	*
=29	=29	=29
*ped	*	*
!	!LO:TX:b:B:t=con molto sentimento.	!
(8BB-\L	(2.f\ 2.ff	.
8F\	.	.
8B-\	.	.
8d-\	.	.
8B-\	.	.
8F\J)	.	.
8BB-\L	2b-\ 2bb-	.
8F\	.	.
8B-\	.	.
8d-\	.	.
8B-\	4cc\ 4ccc	.
8F\J	.	.
=30	=30	=30
(8BB-\L	[2.dd-\ [2.ddd-	<
8F\	.	.
8B-\	.	.
8d-\	.	.
8B-\	.	.
8F\J)	.	.
8BB-\L	2dd-\] 2ddd-]	.
8F\	.	.
8B-\	.	.
8d-\	.	.
8B-\	4ff\) 4fff	[[
8F\J	.	.
*Xped	*	*
=31	=31	=31
*ped	*	*
(8AAn\L	(2.gg-\ 2.ggg-	>
8E-\	.	.
8F\	.	.
8c\	.	.
8F\	.	.
8E-\J	.	.
8AA\L	2ff\ 2fff	.
8E-\	.	.
8F\	.	.
8c\	.	.
8F\	4cc\ 4ccc	]
8E-\J)	.	.
*Xped	*	*
=32	=32	=32
*ped	*	*
(8BB-\L	1.dd-) 1.ddd-	.
8F\	.	.
8B-\	.	.
8d-\	.	.
8B-\	.	.
8F\J	.	.
8D-\L	.	.
8B-\	.	.
8d-\	.	.
8f\	.	.
8d-\	.	.
8B-\J)	.	.
*Xped	*	*
!!LO:LB:g=original	!	!
=33	=33	=33
*ped	*	*
(8E-\L	(2.dd-\ 2.ddd-	<
8B-\	.	.
8c\	.	.
8g-\	.	.
8c\	.	.
8B-\J)	.	.
(8E-\L	2cc\ 2ccc	.
8B-\	.	.
8c\	.	.
8g-\	.	.
8c\	4cc\) 4ccc	[[
8B-\J)	.	.
*Xped	*	*
=34	=34	=34
*ped	*	*
(8En\L	(4cc\ 4ccc	.
8B-\	.	.
.	(16qqdd-/LL 16qqddd-	.
.	16qqcc/JJ) 16qqccc	.
8c\	4b-\ 4bb-	.
8gn\	.	.
8c\	4cc\ 4ccc	>
8B-\J	.	.
8E\L	2dd-\ 2ddd-	.
8B-\	.	.
8c\	.	.
8g\	.	.
8c\	4b-\) 4bb-	]]
8B-\J)	.	.
*Xped	*	*
=35	=35	=35
*ped	*	*
(8F\L	(2.cc\ 2.ccc	<
8An\	.	.
8c\	.	.
8f\	.	.
8c\	.	.
*Xped	*	*
8A\J	.	.
*ped	*	*
8En\L	2ee-X\ 2eee-X	[ f >
8B-\	.	.
8d-\	.	.
8g-\	.	.
8d-\	4dd-\ 4ddd-)	]]
8B-\J)	.	.
*Xped	*	*
=36	=36	=36
(8F\L	2.cc\ 2.ccc	.
8An\	.	.
8c\	.	.
8f\	.	.
8E-\	.	.
8g-\J)	.	.
(8D-\L	2r	>
8B-\	.	.
8d-\	.	.
8f\	.	.
8C\	4r	.
8e-\J)	.	.
!!LO:PB:g=original	!	!
=37	=37	=37
*ped	*	*
(8BB-\L	(2.f\ 2.ff	p
8F\	.	.
8B-\	.	.
8d-\	.	.
8B-\	.	.
8F\J	.	.
8BB-\L	2b-\ 2bb-	.
8F\	.	.
8B-\	.	.
8d-\	.	.
8B-\	4cc\ 4ccc	.
8F\J)	.	.
*Xped	*	*
=38	=38	=38
(8BB-\L	2.dd-\) 2.ddd-	<
8F\	.	.
8B-\	.	.
8d-\	.	.
8B-\	.	.
8F\J)	.	.
*ped	*	*
(8BB-\L	(4ff\ 4fff	.
8F\	.	.
8B-\	4gg-X\ 4ggg-X	.
8d-\	.	.
8BB--\	4ggn\) 4gggn	.
8En\J)	.	.
*Xped	*	*
=39	=39	=39
*ped	*	*
8AA-\L	(2.aa-\ 2.aaa-	f
8F\	.	.
8A-\	.	.
8d-\	.	.
8A-\	.	.
*Xped	*	*
8F\J	.	.
*ped	*	*
!	!	!LO:HP:t=dim.
8AA-\L	2ggn\ 2gggn	>
8E-\	.	.
8G-\	.	.
8c\	.	.
8G-\	4gg-X\) 4ggg-X	.
8E-\J	.	.
*Xped	*	*
=40	=40	=40
*ped	*	*
!	!LO:TX:t=P:problem: w t. 40 kierunek ligatury 1.ff od dołu, w t. 41 od góry	!
(8D-\L	[1.ff [1.fff	.
8A-\	.	.
8d-\	.	.
8f\	.	.
8d-\	.	.
8A-\J	.	.
8D-\L	.	.
8A-\	.	.
8d-\	.	.
8g-\	.	.
8d-\	.	.
8A-\J)	.	.
*Xped	*	*
!!LO:LB:g=original	!	!
=41	=41	=41
*ped	*	*
8G-\L	4ff\] 4fff]	p
8B-\	.	.
8e-\	(4ee-\ 4eee-	.
8g-\	.	.
8e-\	4ff\ 4fff	.
8B-\J	.	.
8GG-\L	4aa-\ 4aaa-	.
8E-\	.	.
8G-\	4gg-X\ 4ggg-X	.
8B-\	.	.
8G-\	4ee-\) 4eee-	.
8E-\J	.	.
*Xped	*	*
=42	=42	=42
*ped	*	*
8AA-\L	[2.dd-\ [2.ddd-	.
8F\	.	.
8A-\	.	.
8d-\	.	.
8A-\	.	.
8F\J	.	.
8AA-\L	4dd-\] 4ddd-]	<
8F\	.	.
8A-\	4cc\ 4ccc	.
8d-\	.	.
8A-\	4b-\ 4bb-	[[
8F\J	.	.
*Xped	*	*
=43	=43	=43
*ped	*	*
8AA-\L	2.a-\ 2.aa-	.
8E-\	.	.
8G-\	.	.
8c\	.	.
8G-\	.	.
8E-\J	.	.
8AA-\L	(2b--\ 2bb--	fz
8E-\	.	.
8G-\	.	.
8c\	.	.
8G-\	4a-\) 4aa-	.
8E-\J	.	.
*Xped	*	*
=44	=44	=44
*ped	*	*
(8D-/L	2.d-/ 2.dd-	.
8F/	.	.
8D-/	.	.
8AA-/	.	.
8FF/	.	.
8AA-/J)	.	.
4DD-/	4r	.
4r	(4dd-'\	p
4r	4dd-'\)	.
*Xped	*	*
!!LO:LB:g=original	!	!
=45!|:	=45!|:	=45!|:
*ped	*	*
.	(16qqf/LL	p
.	16qqcc-X/	.
!	!LO:TX:b:B:t=ma espressivo.	!
.	16qqdd-/JJ)	.
(8D-\L	([2.ff\	.
8A-\	.	.
8c-X\	.	.
8f\	.	.
8c-\	.	.
8A-\J)	.	.
(8D-\L	4ff\]	.
8A-\	.	.
8c-\	4ee-\	.
8f\	.	.
8c-\	4dd-\)	.
8A-\J)	.	.
*Xped	*	*
=46	=46	=46
*ped	*	*
.	(16qqg-/LL	.
.	16qqb-/JJ)	.
(8D-\L	(2.dd-\	.
8B-\	.	.
8d-\	.	.
8g-\	.	.
8d-\	.	.
8B-\J	.	.
8D-\L	2.gg-\)	.
8B-\	.	.
8d-\	.	.
8g-\	.	.
8d-\	.	.
8B-\J)	.	.
*Xped	*	*
=47	=47	=47
*ped	*	*
.	(16qqf/LL	.
.	16qqcc-X/	.
.	16qqdd-/JJ)	.
(8D-\L	(4aa-^<\	.
8A-\	.	.
8c-X\	4gg-\	.
8f\	.	.
8c-\	4ff\)	.
8A-\J)	.	.
.	(16qqf/LL	.
.	16qqcc-/	.
.	16qqdd-/JJ)	.
(8D-\L	(4ff^<\	.
8A-\	.	.
8c-\	4ee-\	.
8f\	.	.
8c-\	4dd-\)	.
8A-\J)	.	.
*Xped	*	*
=48	=48	=48
*ped	*	*
.	(16qqg-/LL	.
.	16qqb-/JJ)	.
8G-\L	(2.dd-\	.
8B-\	.	.
8d-\	.	.
8g-\	.	.
8d-\	.	.
8B-\J	.	.
8G-\L	2.gg-\)	.
8B-\	.	.
8d-\	.	.
8g-\	.	.
8d-\	.	.
8B-\J	.	.
*Xped	*	*
!!LO:LB:g=original	!	!
=49	=49	=49
.	(16qqb-/LL	.
.	16qqddn/JJ)	.
*^	*	*
*	*ped	*	*
!	!LO:N:vis=2.	!	!
2.F/	(>8F\L	(2.b-\ 2.bb-	.
.	8A-\	.	.
.	8B-\	.	.
.	8dn\	.	.
.	8B-\	.	.
*	*Xped	*	*
.	8A-\J)	.	.
*	*ped	*	*
!	!LO:N:vis=2.	!	!
2.BB-/	(>8BB-\L	2cc-X^<\ 2ccc-X	<
.	8F\	.	.
.	8A-\	.	.
.	8d\	.	.
.	8A-\	4b-\) 4bb-	.
.	8F\J)	.	.
*	*Xped	*	*
=50	=50	=50	=50
*ped	*	*	*
!	!LO:N:vis=2.	!	!
2.E-/	(>8E-\L	(2.b-\ 2.bb-	.
.	8G-\	.	.
.	8B-\	.	.
.	8e-\	.	.
.	8B-\	.	.
.	8G-\J)	.	.
!	!LO:N:vis=2.	!	!
2.E-/	(>8E-\L	2gg-\ 2ggg-	.
.	8G-\	.	.
.	8B-\	.	.
.	8e-\	.	.
.	8F\	4ff\) 4fff	.
.	8d-\J)	.	.
*Xped	*	*	*
=51	=51	=51	=51
*ped	*	*	*
!	!LO:N:vis=2.	!	!
2.G-/	(>8G-\L	(2een\ 2eeen	f
.	8B-\	.	.
.	8d-\	.	.
.	8en\	.	.
.	8d-\	4dd-\ 4ddd-	.
.	8B-\J)	.	.
!	!LO:N:vis=2.	!	!LO:HP:t=dimin.
2.G-/	(>8G-\L	2cc\ 2ccc	>
.	8B-\	.	.
.	8c\	.	.
.	8e\	.	.
.	8c\	4b-\) 4bb-	.
.	8B-\J)	.	.
*v	*v	*	*
*Xped	*	*
=52	=52	=52
*ped	*	*
(8F\L	2.cc\ 2.ccc	p
8An\	.	.
8c\	.	.
8f\	.	.
8c\	.	.
*Xped	*	*
8A\J	.	.
8F\L	2r	.
8G-\	.	.
8F\	.	.
8E-\	.	.
8C\	4r	.
8D-\J)	.	.
!!LO:LB:g=original	!	!
=53	=53	=53
*ped	*	*
(8BB-\L	(2.f\ 2.ff	.
8F\	.	.
8B-\	.	.
8d-\	.	.
8B-\	.	.
8F\J	.	.
8BB-\L	2b-\ 2bb-	.
8F\	.	.
8B-\	.	.
8d-\	.	.
8B-\	4cc\) 4ccc	.
8F\J)	.	.
=54	=54	=54
(8BB-\L	([2.dd-\ [2.ddd-	.
8F\	.	.
8B-\	.	.
8d-\	.	.
8B-\	.	.
8F\J	.	.
8BB-\L	2dd-\] 2ddd-]	.
8F\	.	.
8B-\	.	.
8d-\	.	.
8B-\	4ff\) 4fff	.
8F\J)	.	.
*Xped	*	*
=55	=55	=55
*ped	*	*
(8AAn\L	(2.gg-\ 2.ggg-	.
8E-\	.	.
8G-\	.	.
8c\	.	.
8G-\	.	.
8E-\J)	.	.
(8FF\L	2ff\ 2fff	.
8E-\	.	.
8F\	.	.
8An\	.	.
8F\	4cc\) 4ccc	.
8E-\J)	.	.
*Xped	*	*
=56	=56	=56
*ped	*	*
(8BB-\L	[1.dd- [1.ddd-	.
8F\	.	.
8B-\	.	.
8d-\	.	.
8B-\	.	.
8F\J)	.	.
(8BB-\L	.	.
8F\	.	.
8B-\	.	.
8d-\	.	.
8B-\	.	.
8F\J)	.	.
*Xped	*	*
!!LO:LB:g=original	!	!
=57	=57	=57
*ped	*	*
!	!LO:TX:t=P:problem: w t. 56 kierunek ligatury 4dd-\ od dołu, w t. 57 od góry	!
(8E-\L	4dd-\] 4ddd-]	.
8B-\	.	.
8c\	(4cc\ 4ccc	.
8g-\	.	.
8c\	4dd-\ 4ddd-	.
8B-\J)	.	.
(8E-\L	4ee-\ 4eee-	.
8B-\	.	.
8c\	4dd-\ 4ddd-	.
8g-\	.	.
8c\	4cc\) 4ccc	.
8B-\J)	.	.
*Xped	*	*
=58	=58	=58
(8F\L	[2.b-\ [2.bb-	.
8B-\	.	.
8d-\	.	.
8f\	.	.
8d-\	.	.
8B-\J)	.	.
(8FF\L	2b-\] 2bb-]	<
8D-\	.	.
8F\	.	.
8B-\	.	.
8F\	4f\ 4ff	[[
8D-\J)	.	.
=59	=59	=59
*ped	*	*
(8FF\L	([2.g-\ [2.gg-	fz >
8C\	.	.
8E-\	.	.
8An\	.	.
8E-\	.	.
8C\J)	.	.
(8FF\L	2g-\] 2gg-]	]
8C\	.	.
8E-\	.	.
8A\	.	.
8E-\	4f\) 4ff	.
8C\J)	.	.
*Xped	*	*
=60	=60	=60
*>A1	*>A1	*>A1
*ped	*	*
(8BB-\L	2.B-/ 2.b-	.
8D-\	.	.
8F\	.	.
8B-\	.	.
8F\	.	.
8D-\J)	.	.
2BB-/	4r	.
.	(4dd-'\	.
4r	4dd-'\)	.
*Xped	*	*
!!LO:PB:g=original	!	!
=61:|!	=61:|!	=61:|!
*>A2	*>A2	*>A2
*ped	*	*
(8BB-\L	2B-/ 2b-	.
8D-\	.	.
8F\	.	.
8B-\	.	.
8F\	4r	.
8D-\J)	.	.
4BB-/	8r	.
.	(8an\L	.
4r	8b-\	.
.	8a\	.
*Xped	*	*
4r	8b-\	.
.	8cc\J)	.
=62	=62	=62
*>B	*>B	*>B
*ped	*	*
(8BB-\L	2dd-\	.
8F\	.	.
8B-\	.	.
8d-\	.	.
8B-\	4r	.
8F\J	.	.
4BB-/)	8r	.
.	(8cc\L	.
4r	8dd-\	.
.	8cc\	.
*Xped	*	*
4r	8dd-\	.
.	8ee-\J	.
=63	=63	=63
*ped	*	*
(8BB-\L	2ff\)	<
8F\	.	.
8B-\	.	.
8d-\	.	.
*clefG2	*	*
8f\	4r	.
8b-\J	.	.
4dd-\)	8r	.
.	(8een\L	.
4r	8ff\	.
.	8ddd-\	.
*Xped	*	*
4r	8ccc\	.
.	8bb-\J)	.
*clefF4	*	*
=64	=64	=64
*ped	*	*
(8C\L	([2.aa-\	f
8A-\	.	.
8c\	.	.
*clefG2	*	*
8e-\	.	.
8g-\	.	.
8a-\J	.	.
2cc\)	8aa-\L]	.
.	8ggn\	.
.	8aa-\	.
.	8aan\	.
4r	8ccc\	.
.	8bb-\J)	.
*Xped	*	*
!!LO:LB:g=original	!	!
=65	=65	=65
1.r	(8aa-X\L	.
.	8gg-X\	.
.	8ff\	.
.	8ee-\	.
.	8ddn\	.
.	8ee-\J	.
.	8gg-\L	>
.	8ff\	.
.	8ee-\	.
.	8dd-X\	.
.	8cc\	.
.	8b-\J)	.
=66	=66	=66
1.r	((8a-\L	p
.	8gn\	.
.	8a-\	.
.	8b--\	.
.	8a-\	<
.	8an\J)	.
!	!LO:TX:t=P:problem: znak kasownika obok bemola	!
.	8b-X'\L	.
.	(8a\	.
.	8b-\)	.
.	(8cc-X\	.
.	8b-\)	.
.	(8bn\J	[[
=67	=67	=67
!	!LO:TX:b:B:t=poco ritard.	!
1.r	8ccn\L)	.
.	(8bn\	.
.	8cc\)	.
.	(8dd-\	.
.	8cc\)	.
.	(8dd-\J	>
.	8ddn\L)	.
.	8ee-'\	.
.	8een'\	.
.	8ff'\	.
.	8gg-'\	.
.	8ggn'\J)	]]
*clefF4	*	*
=68	=68	=68
.	(16qqf/LL	.
!	!LO:TX:b:B:t=a Tempo.	!
.	16qqdd-/JJ)	.
*ped	*	*
4DD-/ 4D-	([2.aa-\	.
!	!	!LO:HP:b=2
(4F\ 4d-	.	<
4A-\ 4e-	.	.
2d-\) 2f	4aa-\]	.
.	4dd-\	.
4r	4ee-\)	[
*Xped	*	*
=69	=69	=69
.	(16qqf/LL	.
.	16qqa-/JJ)	.
*ped	*	*
4DD-/ 4D-	([2.ff\	.
!	!	!LO:HP:b=2
(4F\ 4d-	.	<
4A-\ 4e-	.	.
2d-\) 2f	4ff\]	.
.	4gg-\	.
4r	4ff\)	[
*Xped	*	*
!!LO:LB:g=original	!	!
=70	=70	=70
.	(16qqg-/LL	.
*^	*	*
.	16qAAA-/	16qqcc/JJ)	.
*ped	*	*	*
4rG	[2.AA-\	([2.ee-\	.
!	!	!	!LO:HP:b=2
(4A-/	.	.	<
4B-/	.	.	.
2c/)	2AA-\]	4ee-\]	.
.	.	4ff\	.
4rFF	4rB	4ee-\)	[
*Xped	*	*	*
*v	*v	*	*
=71	=71	=71
.	(16qqf/LL	.
.	(16qqa-/JJ	.
*ped	*	*
4DD-/ 4D-	([2.dd-\	.
!	!	!LO:HP:b=2
(4F\ 4d-	.	<
4A-\ 4e-	.	.
2d-\) 2f	4dd-\]	.
.	16qqb-/LL	.
.	16qqcc/JJ	.
.	4b-\	.
4r	4a-\)	[
*Xped	*	*
=72	=72	=72
.	(16qqa-/LL	.
.	16qqdd-/	.
.	16qqff/JJ)	.
*ped	*	*
4DD-/ 4D-	([2.aa-\	.
!	!	!LO:HP:b=2
(4F\ 4d-	.	<
4A-\ 4e-	.	.
2d-\) 2f	4aa-\]	.
.	4dd-\	.
4r	4ee-\)	[
*Xped	*	*
=73	=73	=73
*	*	*^
.	16qqf/LL	.	.
.	16qqb-/	.	.
.	16qqdd-/JJ	.	.
*ped	*	*	*
4DD-/ 4D-	([2.ff\	.	sf
!	!	!	!LO:HP:b=2
(4F\ 4d-	.	>	<
4A-\ 4e-	.	.	.
2d-\) 2f	4ff\]	]	.
.	4ee-\	.	.
4r	4dd-\)	.	[
*Xped	*	*	*
*	*	*v	*v
=74	=74	=74
*	*^	*
.	.	[16qqd-/LL	.
.	.	[16qqgn/JJ	.
*^	*	*	*
*ped	*	*	*	*
!	!	!	!LO:N:vis=1	!
4r	[2.EE-\	[2.dd-/	2.d-\] 2.g]	sf
(4E-/	.	.	.	.
4F/	.	.	.	.
2Gn/)	2EE-\]	4dd-/]	2.d-yy\ 2.gyy	>
.	.	4cc/	.	.
4rCC	4rG	4b-/	.	]]
*Xped	*	*	*	*
=75	=75	=75	=75	=75
!	!	!LO:TX:b:B:t=riten.	!	!
.	(>16qAAA-/	.	.	.
4rG	[2.AA-\)	[2.b--^/	[2.c\ [>2.e-	p
(4E-/	.	.	.	.
4F/	.	.	.	.
2G-X/)	2AA-\]	4b--/]	4c\] 4e-]	.
.	.	(4a-'/	4r	.
4rFF	4rG	4a-'/)	4r	.
*v	*v	*	*	*
*	*v	*v	*
!!LO:LB:g=original	!	!
=76	=76	=76
.	(<16qqa-/LL	.
.	16qqdd-/	.
.	16qqff/JJ)	.
*ped	*	*
4DD-/ 4D-	([2.aa-^<\	.
(4F\ 4d-	.	.
4A-\ 4e-	.	.
2d-\) 2f	4aa-\]	.
.	4dd-\	.
4r	4ee-\)	.
*Xped	*	*
=77	=77	=77
.	(16qqf/LL	.
.	16qqa-/JJ)	.
*ped	*	*
4DD-/ 4D-	([2.ff\	.
(4F\ 4d-	.	.
4A-\ 4e-	.	.
2d-\) 2f	4ff\]	.
.	4gg-\	.
4r	4ff\)	.
*Xped	*	*
=78	=78	=78
*	*^	*
.	.	[16qqg-/LL	.
*^	*	*	*
.	16qAAA-/	.	[16qqcc/JJ	.
*ped	*	*	*	*
4rG	[2.AA-\	([2.ee-/	1.g-] 1.cc]	.
(4A-/	.	.	.	.
4B-/	.	.	.	.
2c/)	2AA-\]	4ee-/]	.	.
.	.	4ff/	.	.
4rFF	4rB	4ee-/)	.	.
*Xped	*	*	*	*
=79	=79	=79	=79	=79
.	16qDD-/	.	.	.
*ped	*	*	*	*
4r	[2.D-\	([2.dd-/	1.f 1.a-	<
(4A-/	.	.	.	.
4B-/	.	.	.	.
2c-X/)	2D-\]	4dd-/]	.	.
.	.	(<16qff/	.	.
.	.	4ee-/)	.	.
4rAA	4rB	4dd-/)	.	[[
*Xped	*	*	*	*
*	*	*v	*v	*
=80	=80	=80	=80
.	.	16qdd-/	.
*ped	*	*	*
4rB	[2.GG-\	([2.bb-\ [2.ddd-	f
(4B-/	.	.	.
4c/	.	.	.
2d-/)	2GG-\]	4bb-\] 4ddd-]	.
.	.	4aa-\ 4ccc	.
4rFF	4rB	4gg-\) 4bb-	.
*Xped	*	*	*
=81	=81	=81	=81
.	16qAA-/	16qa-/	.
*ped	*	*	*
4r	[2.A-\	(2.ff^<\ [2.aa-	.
(4d-/	.	.	.
4e-/	.	.	.
2f/)	2A-\]	4ff\ 4aa-]	.
.	.	4b-\ 4gg-	.
4r	4r	4a-\) 4ff	.
*Xped	*	*	*
=82	=82	=82	=82
.	16qAAA-/	.	.
*	*	*^	*
*ped	*	*	*	*
4ryy	[2.AA-\	([2.ee-/	1.g-^ 1.cc	.
4A-/	.	.	.	.
4B-/	.	.	.	.
2c/	2AA-\]	4ee-/]	.	.
.	.	4ff/	.	.
4rFF	4rB	4ee-/)	.	.
*Xped	*	*	*	*
!!LO:LB:g=original	!	!	!	!
=83	=83	=83	=83	=83
.	16qAAAn/	.	.	.
*	*ped	*	*	*
4rB	2AAn\	[2ff/	2f\ 2cc	sf
!	!	!	!	!LO:DY:b=2
4F/ 4c	.	.	.	sf
!	!	!LO:TX:b:B:t=passionato.	!	!
*	*Xped	*	*	*
4rG	4rFF	4ff/]	4f\	.
.	16qBBB-/	.	.	.
*	*	*	*	*^
*	*ped	*	*	*	*
4rG	2BB-\	(4dd-\ 4ddd-	4ryy	>	.
!	!	!	!	!	!LO:DY:b=2
4F/ 4d-	.	4cc\ 4ccc	4ryy	.	sf
*	*Xped	*	*	*	*
4rFF	4rG	4b-\) 4bb-	4ryy	]]	.
*	*	*v	*v	*	*
*	*	*	*v	*v
=84	=84	=84	=84
*	*	*	*^
.	16qCC/	.	.	.
*	*ped	*	*	*
4rB	2C\	(2a-\ 2aa-	sf	.
!	!	!	!	!LO:DY:b=2
4A-/ 4e-	.	.	.	sf
*	*Xped	*	*	*
4rB	4rFF	4aa-\) 4aaa-	<	.
.	16qDD-/	.	.	.
*	*ped	*	*	*
4rB	2D-\	(4aa-\ 4aaa-	.	.
4A-/ 4f	.	4ggny\ 4gggny	.	.
*	*Xped	*	*	*
4rAA	4rB	[4ff^<\ [4fff	.	.
*v	*v	*	*	*
*	*	*v	*v
=85	=85	=85
*ped	*	*
(4GG-/ 4G-	4ff\] 4fff]	.
4G-\) 4B- 4e-	4ee-\ 4eee-	.
*Xped	*	*
4r	[4dd-^<\ [4ddd-	.
*ped	*	*
(4GG-/ 4G-	4dd-\] 4ddd-]	.
4G-\) 4B- 4e-	4cc\ 4ccc	.
*Xped	*	*
4r	4b-\) 4bb-	.
=86	=86	=86
*^	*	*
*ped	*	*	*
(4AA-/	2.ryy	(4a-\ 4aa-	.
!	!	!	!LO:HP:t=dimin.
4F\) 4A- 4d-	.	4gn\ 4ggn	>
*Xped	*	*	*
4r	.	4a-\ 4aa-	.
.	16qAAA-/	.	.
*ped	*	*	*
4rG	2AA-\	2b--^<\ 2bb--	.
4E-/ 4G-	.	.	.
*Xped	*	*	*
4rFF	4rG	4c/) 4cc	.
=87	=87	=87	=87
.	(16qDD-/	.	.
*	*	*^	*
*ped	*	*	*	*
4rB	[1.D-)	([2.dd-/	4d-\	.
(4A-/	.	.	4f\	.
4B-/	.	.	4g-\	.
2.c-X/	.	4dd-/]	2.a-\	.
.	.	16qff/	.	.
.	.	4ee-/	.	.
.	.	4dd-/)	.	.
*Xped	*	*	*	*
*	*	*v	*v	*
=88	=88	=88	=88
.	(16qDD-/	.	.
*	*	*^	*
*	*	*	*^	*
*ped	*	*	*	*	*
4rB	1.D-])	([2.gg-/	4g-\	4ryy	<
4G-/	.	.	4b-\	4ryy	.
4A-/	.	.	4a-\	4ryy	.
2.B--/)	.	4gg-/]	2.g-\	2cc/	[ >
.	.	4ff/	.	.	.
.	.	4ee-/)	.	4ryy	]]
*Xped	*	*	*	*	*
*	*	*v	*v	*v	*
=89	=89	=89	=89
.	(16qDD-/	.	.
*	*	*^	*
*ped	*	*	*	*
4rB	1.D-)	((>[2.dd-/	(>4f\	<
(4A-/	.	.	4f\	.
4B-/	.	.	4g-\	.
2.c-X/	.	4dd-/]	2.a-\)	[ >
.	.	16qff/	.	.
.	.	4ee-/	.	.
.	.	4dd-/))	.	]]
*Xped	*	*	*	*
!!LO:LB:g=original	!	!	!	!
=90	=90	=90	=90	=90
.	16qDD-/	.	.	.
*ped	*	*	*	*
4rB	1.D-	([2.gg-/	4g-\	<
4G-/	.	.	4b-\	.
4A-/	.	.	4a-\	.
2.B--/)	.	4gg-/]	2.g-\ 2.cc	[ >
.	.	4ff/	.	.
.	.	4ee-/)	.	]]
*Xped	*	*	*	*
=91	=91	=91	=91	=91
*ped	*	*	*	*
!LO:TX:b:B:t=il Basso legato.	!	!	!	!
!	!	!LO:TX:b:t=dim e ritar_dan_do.:dur=4h2q:ext=ud:problem:text with extention lines 	!	!
4A-/	2D-\	(2.dd-/	2.f\	>
4d-/	.	.	.	.
*Xped	*	*	*	*
4rB	4BB-\	.	.	.
*	*ped	*	*	*
4rB	2BB--\	2ff/	2.g-^\ 2.cc	.
2E-/ 2G- 2c	.	.	.	.
.	4AA-\	4ee-/)	.	.
*	*Xped	*	*	*
=92	=92	=92	=92	=92
*ped	*	*	*	*
4r	2D-\	(2.dd-/	2.f\	.
4F/ 4A- 4d-	.	.	.	.
*Xped	*	*	*	*
4rB	4BB-\	.	.	.
*	*ped	*	*	*
4rB	2BB--\	2ff/	2.g-^\ 2.cc	.
4E-/ 4G- 4c	.	.	.	.
4rB	4AA-\	4ee-/)	.	]]
*	*Xped	*	*	*
*v	*v	*	*	*
=93	=93	=93	=93
*ped	*	*	*
4D-\	4dd-/	4f\	.
*clefG2	*	*	*
*	*v	*v	*
*	*8va	*
*	*^	*
!	!LO:TX:b:B:t=legatissimo.	!	!
4ff\	4ddd-\ 4aaa-	4ryy	pp
[4dd-^<\	[4aa-^<\ [4fff	1ryy	.
4dd-\]	4aa-\] 4fff]	.	.
*	*X8va	*	*
!	!LO:TX:a:B:t=loco.	!	!
4a-/	4ff\ 4ddd-	.	.
[4f^/	[4dd-^<\ [4aa-	.	.
*	*v	*v	*
=94	=94	=94
4f/]	4dd-\] 4aa-]	.
*clefF4	*	*
4d-\	4a-\ 4ff	.
[4A-^<\	[4f^/ [4dd-	.
4A-\]	4f/] 4dd-]	.
4F\	4d-/ 4a-	.
4D-\	4A-/ 4f	.
=95	=95	=95
*^	*	*
*	*^	*	*
*	*Xped	*	*	*
!	!	!	!LO:TX:b:B:t=riten.	!
2.F/	[1.D-	2.DD-\	[>1.d-	>]
2B-/	.	2.GG-\ 2.G-	.	.
4B--/	.	.	.	.
*	*v	*v	*	*
=96	=96	=96	=96
*ped	*	*	*
1D-;] 1F 1A-	1.DD-;	1.d-;]	.
!LO:TX:b:i:t=FINE.	!	!	!
*Xped	*	*	*
2ryy	.	.	.
*v	*v	*	*
==	==	==
*-	*-	*-
!!!system-decoration: {(s1,s2)}
!!!RDF**kern: > = above
!!!RDF**kern: < = below
!!!ENC: Berenika Jozajtis
!!!END: 2022-09-09
!!!ENC: Jan Barakat
!!!END: 2022-10-19
!!!YEC: Copyright 2022 Narodowy Instytut Fryderyka Chopina (https://polishscores.org)
!!!YEM: License CC-BY-4.0 (https://creativecommons.org/licenses/by/4.0)
